icon-themes/breeze_svg/cmd/ar/sc_undo.svg

<svg viewBox="0 0 16 16" xmlns="http://www.w3.org/2000/svg">/&gt;<path d="m9.5 2-.71875.71875 2.3125 2.28125h-3.59375c-2.4852829 0-4.5 2.0147479-4.5 4.5 0 2.485252 2.0147171 4.5 4.5 4.5h.5 1v-1h-1-.5c-1.9329979 0-3.5-1.566998-3.5-3.5 0-1.9330016 1.5670021-3.5 3.5-3.5h3.59375l-2.3125 2.28125.71875.71875 3.28125-3.28125.21875-.21875-.21875-.21875z" fill="#4d4d4d"/></svg>

<svg xmlns="http://www.w3.org/2000/svg" viewBox="0 0 16 16">
     />
 <path 
     style="fill:#4d4d4d" 
     d="M 9.5 2 L 8.78125 2.71875 L 11.09375 5 L 7.5 5 C 5.0147171 5 3 7.0147479 3 9.5 C 3 11.985252 5.0147171 14 7.5 14 L 8 14 L 9 14 L 9 13 L 8 13 L 7.5 13 C 5.5670021 13 4 11.433002 4 9.5 C 4 7.5669984 5.5670021 6 7.5 6 L 11.09375 6 L 8.78125 8.28125 L 9.5 9 L 12.78125 5.71875 L 13 5.5 L 12.78125 5.28125 L 9.5 2 z "
     />
 </svg>
